assets/svg/1f23a.svg

<svg xmlns="http://www.w3.org/2000/svg" viewBox="0 0 64 64" enable-background="new 0 0 64 64"><path fill="#f2b200" d="M62,52c0,5.523-4.477,10-10,10H12C6.477,62,2,57.523,2,52V12C2,6.477,6.477,2,12,2h40
		c5.523,0,10,4.477,10,10V52z"/><path fill="#fff" d="m48 20.06v8.167h-4.34v-4.295h-23.584v4.295h-4.076v-8.167h4.566c-.68-1.226-1.623-2.607-2.49-3.757l3.886-1.688c1.244 1.458 2.717 3.49 3.359 4.908l-1.209.536h5.813c-.529-1.38-1.547-3.259-2.453-4.715l3.924-1.342c1.096 1.496 2.342 3.682 2.867 5.061l-2.641.997h6.189c1.207-1.647 2.641-3.986 3.357-5.788l4.832 1.533c-1.094 1.457-2.227 2.99-3.283 4.255h5.283m-14.227 15.14c-.301.844-.641 1.61-.98 2.338h12.49v12.461h-4.453v-1.265h-17.697v1.265h-4.264v-12.461h9.473c.188-.766.414-1.57.564-2.338h-6.867v-9.391h19.697v9.392h-7.963m7.06 6.248h-17.697v3.336h17.697v-3.336m-14.641-9.584h11.207v-2.684h-11.207v2.684"/></svg>

<svg xmlns="http://www.w3.org/2000/svg" width="64" height="64" viewBox="0 0 64 64"><path fill="#EDA454" d="M62 52c0 5.523-4.477 10-10 10H12C6.477 62 2 57.523 2 52V12C2 6.477 6.477 2 12 2h40c5.523 0 10 4.477 10 10v40z"/><path fill="#FFF" d="M48 20.057v8.168h-4.34V23.93H20.076v4.295H16v-8.168h4.566c-.68-1.225-1.623-2.607-2.49-3.756l3.887-1.688c1.244 1.457 2.717 3.49 3.358 4.908l-1.208.535h5.813c-.529-1.379-1.548-3.258-2.454-4.715L31.396 14c1.095 1.496 2.341 3.682 2.867 5.061l-2.641.996h6.188c1.208-1.646 2.642-3.986 3.358-5.787L46 15.803c-1.095 1.457-2.227 2.99-3.283 4.254H48zM33.773 35.201a27.58 27.58 0 0 1-.98 2.338h12.49V50H40.83v-1.266H23.133V50h-4.264V37.539h9.472c.188-.766.415-1.57.564-2.338h-6.867v-9.393h19.698v9.393h-7.963zm7.057 6.248H23.133v3.336H40.83v-3.336zm-14.641-9.584h11.207v-2.684H26.189v2.684z"/></svg>
